assets/logistics-color/LogisticsColor21.svg

<svg xmlns="http://www.w3.org/2000/svg" id="Layer_1" x="0" y="0" version="1.1" viewBox="0 0 256 256" xml:space="preserve"><style>.st1{fill:#48386a}.st2{fill:#9feaff}.st3{fill:#fff}.st4{fill:#ff8584}.st5{fill:#febe7f}</style><path fill="#dbfdff" d="M206.6 137.1c21.7-7.1 37.4-27.5 37.4-51.6 0-28.2-21.5-51.4-49-54-9.8-14.1-26.1-23.4-44.6-23.4-11.6 0-22.4 3.7-31.2 9.9-8-4.6-17.2-7.2-27-7.2-29.1 0-52.8 22.9-54.2 51.7-17.3 9.1-29 27.1-29 47.9 0 23 14.3 42.6 34.4 50.5-8.5 9.6-13.7 22.2-13.7 36 0 30 24.3 54.3 54.3 54.3 11.4 0 21.9-3.5 30.6-9.5 4.3 1.1 8.8 1.7 13.4 1.7 11.2 0 21.7-3.4 30.3-9.3 6.6 2.8 13.8 4.4 21.4 4.4 30 0 54.3-24.3 54.3-54.3 0-20.1-11.1-37.7-27.4-47.1z"/><circle cx="47.3" cy="198" r="8.8" class="st1"/><circle cx="24.2" cy="198" r="8.8" class="st2"/><path d="M236 173h8.8v43H236z" class="st3"/><path d="M244.8 217H236c-.6 0-1-.4-1-1v-43c0-.6.4-1 1-1h8.8c.6 0 1 .4 1 1v43c0 .6-.5 1-1 1zm-7.8-2h6.8v-41H237v41z" class="st1"/><path d="M189.5 47.5c28.1 19.5 46.5 52 46.5 88.8V216H20v-79.8c0-59.6 48.4-108 108-108 19.8 0 38.5 5.4 54.4 14.8l7.1 4.5z" class="st3"/><path d="M236 217H20c-.6 0-1-.4-1-1v-79.8c0-60.1 48.9-109 109-109 19.3 0 38.3 5.1 55 14.9.5.3.6.9.4 1.4-.3.5-.9.6-1.4.4-16.3-9.6-35-14.6-53.9-14.6-59 0-107 48-107 107V215h214v-78.8c0-35-17.2-67.9-46.1-87.9-.5-.3-.6-.9-.3-1.4s.9-.6 1.4-.3c29.4 20.4 47 53.9 47 89.6V216c-.1.6-.5 1-1.1 1z" class="st1"/><path d="M194.5 47.5c28.1 19.5 46.5 52 46.5 88.8V216H25v-79.8c0-59.6 48.4-108 108-108 19.8 0 38.5 5.4 54.4 14.8l7.1 4.5z" class="st4"/><path d="M226 147.6V216H30v-79.8c0-54.1 43.9-98 98-98s98 43.9 98 98V147.6z" class="st3"/><path d="M226 217H30c-.6 0-1-.4-1-1v-79.8c0-54.6 44.4-99 99-99s99 44.4 99 99v5.3c0 .6-.4 1-1 1s-1-.4-1-1v-5.3c0-53.5-43.5-97-97-97s-97 43.5-97 97V215h194v-67.5c0-.6.4-1 1-1s1 .4 1 1V216c0 .6-.4 1-1 1z" class="st1"/><path d="M236 217H20c-.6 0-1-.4-1-1v-79.8c0-60.1 48.9-109 109-109 19.3 0 38.3 5.1 55 14.9.5.3.6.9.4 1.4-.3.5-.9.6-1.4.4-16.3-9.6-35-14.6-53.9-14.6-59 0-107 48-107 107V215h214v-78.8c0-35-17.2-67.9-46.1-87.9-.5-.3-.6-.9-.3-1.4s.9-.6 1.4-.3c29.4 20.4 47 53.9 47 89.6V216c-.1.6-.5 1-1.1 1z" class="st1"/><path d="M33.8 227.8H5V216h246v11.8H41.7z" class="st2"/><path d="M251 228.8H41.7c-.6 0-1-.4-1-1s.4-1 1-1H250V217H6v9.7h27.8c.6 0 1 .4 1 1s-.4 1-1 1H5c-.6 0-1-.4-1-1V216c0-.6.4-1 1-1h246c.6 0 1 .4 1 1v11.7c0 .6-.4 1.1-1 1.1z" class="st1"/><path d="M11.3 185.3V173H20v43h-8.7v-24.2z" class="st3"/><path d="M20 217h-8.8c-.6 0-1-.4-1-1v-24.3c0-.6.4-1 1-1s1 .4 1 1V215H19v-41h-6.8v11.2c0 .6-.4 1-1 1s-1-.4-1-1V173c0-.6.4-1 1-1H20c.6 0 1 .4 1 1v43c0 .6-.4 1-1 1zM84 117.4H42.3c-.3 0-.6-.1-.8-.4-.2-.2-.3-.6-.2-.8 1.3-5.8 3.3-11.5 5.8-16.9.2-.4.5-.6.9-.6h8.9c.6 0 1 .4 1 1s-.4 1-1 1h-8.2c-2.1 4.7-3.8 9.7-5.1 14.7H83v-14.7H64.6c-.6 0-1-.4-1-1s.4-1 1-1H84c.6 0 1 .4 1 1v16.7c0 .6-.4 1-1 1zM150.3 117.4h-11.5c-.6 0-1-.4-1-1s.4-1 1-1h10.5v-14.7h-42.7v14.7h25c.6 0 1 .4 1 1s-.4 1-1 1h-26c-.6 0-1-.4-1-1V99.7c0-.6.4-1 1-1h44.7c.6 0 1 .4 1 1v16.7c0 .6-.4 1-1 1zM108.3 67.9h-3.8c-.3 0-.5-.2-.5-.5s.2-.5.5-.5h3.8c.3 0 .5.2.5.5s-.3.5-.5.5zM213.7 117.4H172c-.6 0-1-.4-1-1V99.7c0-.6.4-1 1-1h36c.4 0 .7.2.9.6 2.5 5.4 4.4 11.1 5.8 16.9.1.3 0 .6-.2.8-.2.3-.5.4-.8.4zm-40.7-2h39.5c-1.2-5-2.9-10-5.1-14.7H173v14.7z" class="st1"/><path d="M202.5 104.7h5.1c.8 2.2 1.6 4.4 2.2 6.7H182v-6.7h20.5zM53.8 111.4c.7-2.3 1.4-4.5 2.2-6.7h25.6v6.7H53.8z" class="st2"/><path d="M128.6 91.8h6.7v32.5h-6.7z" class="st2" transform="rotate(90 131.917 108.06)"/><path d="M115.7 67.4h62V84H88.3V67.4h17.2z" class="st2"/><path d="M90.2 89.8h85.5v166.9H90.2z" class="st5" transform="rotate(90 133 173.29)"/><path d="M211.5 216.5h-167c-.3 0-.5-.2-.5-.5v-17c0-.3.2-.5.5-.5h166.9c.3 0 .5.2.5.5v17c.1.3-.2.5-.4.5zm-166.5-1h166v-16H45v16z" class="st1"/><path d="M211.5 199.4h-167c-.3 0-.5-.2-.5-.5v-17c0-.3.2-.5.5-.5h166.9c.3 0 .5.2.5.5v17c.1.3-.2.5-.4.5zm-166.5-1h166v-16H45v16z" class="st1"/><path d="M211.5 182.3h-167c-.3 0-.5-.2-.5-.5v-17c0-.3.2-.5.5-.5H136c.3 0 .5.2.5.5s-.2.5-.5.5H45v16h166v-16h-65.6c-.3 0-.5-.2-.5-.5s.2-.5.5-.5h66.1c.3 0 .5.2.5.5v17c0 .3-.3.5-.5.5z" class="st1"/><path d="M211.5 165.2h-66.1c-.3 0-.5-.2-.5-.5s.2-.5.5-.5H211v-16H45v16h91c.3 0 .5.2.5.5s-.2.5-.5.5H44.5c-.3 0-.5-.2-.5-.5v-17c0-.3.2-.5.5-.5h166.9c.3 0 .5.2.5.5v17c.1.3-.2.5-.4.5zM251 222.4H120.8c-.3 0-.5-.2-.5-.5s.2-.5.5-.5H251c.3 0 .5.2.5.5s-.2.5-.5.5zM114 222.4H5c-.3 0-.5-.2-.5-.5s.2-.5.5-.5h109c.3 0 .5.2.5.5s-.2.5-.5.5zM79 111.9H48.8c-.2 0-.3-.1-.4-.2-.1-.1-.1-.3-.1-.4.7-2.3 1.5-4.6 2.5-6.8.1-.2.3-.3.5-.3H79c.3 0 .5.2.5.5v6.7c0 .3-.2.5-.5.5zm-29.5-1h29v-5.7H51.6c-.8 1.9-1.5 3.8-2.1 5.7zM145.3 111.9h-34.7c-.3 0-.5-.2-.5-.5v-6.7c0-.3.2-.5.5-.5h34.7c.3 0 .5.2.5.5v6.7c0 .3-.2.5-.5.5zm-34.1-1h33.7v-5.7h-33.7v5.7zM172.7 84.5H83.3c-.3 0-.5-.2-.5-.5V67.4c0-.3.2-.5.5-.5h17.2c.3 0 .5.2.5.5s-.2.5-.5.5H83.8v15.6h88.3V67.9h-61.5c-.3 0-.5-.2-.5-.5s.2-.5.5-.5h62c.3 0 .5.2.5.5V84c.1.3-.2.5-.4.5z" class="st1"/><g><path d="M211.5 216.5h-167c-.3 0-.5-.2-.5-.5v-85.5c0-.3.2-.5.5-.5h166.9c.3 0 .5.2.5.5V216c.1.3-.2.5-.4.5zm-166.5-1h166V131H45v84.5z" class="st1"/></g><g><path d="M207.2 111.9H177c-.3 0-.5-.2-.5-.5v-6.7c0-.3.2-.5.5-.5h15.9c.3 0 .5.2.5.5s-.2.5-.5.5h-15.4v5.7h29c-.6-1.9-1.3-3.8-2.1-5.7h-5.2c-.3 0-.5-.2-.5-.5s.2-.5.5-.5h5.5c.2 0 .4.1.5.3.9 2.2 1.7 4.5 2.5 6.8 0 .2 0 .3-.1.4-.1.1-.2.2-.4.2z" class="st1"/></g><g><path d="M216.7 217H39.3c-.6 0-1-.4-1-1v-70c0-.6.4-1 1-1s1 .4 1 1v69h175.3v-88.7H40.3v12.1c0 .6-.4 1-1 1s-1-.4-1-1v-13.1c0-.6.4-1 1-1h177.3c.6 0 1 .4 1 1V216c.1.6-.4 1-.9 1z" class="st1"/></g><g><path d="M177.7 90H78.3c-.6 0-1-.4-1-1V62.4c0-.6.4-1 1-1h99.3c.6 0 1 .4 1 1V89c.1.6-.4 1-.9 1zm-98.4-2h97.3V63.4H79.3V88z" class="st1"/></g><g><path d="M244.8 217H236c-.6 0-1-.4-1-1v-43c0-.6.4-1 1-1h8.8c.6 0 1 .4 1 1v43c0 .6-.5 1-1 1zm-7.8-2h6.8v-41H237v41z" class="st1"/></g><g><path d="M70.2 241.7c-1.6 0-3-1.3-3-3s1.3-3 3-3 3 1.3 3 3-1.3 3-3 3zm0-4.9c-1.1 0-2 .9-2 2s.9 2 2 2 2-.9 2-2-.9-2-2-2z" class="st1"/></g><g><path d="M59.5 38.8c-1.6 0-3-1.3-3-3s1.3-3 3-3 3 1.3 3 3-1.4 3-3 3zm0-5c-1.1 0-2 .9-2 2s.9 2 2 2 2-.9 2-2-.9-2-2-2z" class="st4"/></g><g><path d="M97.3 22.4h-.1l-1-.3c-.3-.1-.4-.4-.3-.6.1-.3.4-.4.6-.3h.1l-.5-1.8v-.3l.5-1.8-1.8.5h-.3l-1.8-.5.5 1.8v.3l-.5 1.8 1.8-.5c.3-.1.5.1.6.3.1.3-.1.5-.3.6l-2.7.8c-.2 0-.4 0-.5-.1-.1-.1-.2-.3-.1-.5l.8-2.6-.8-2.6c-.1-.2 0-.4.1-.5.1-.1.3-.2.5-.1l2.6.8 2.6-.8c.2-.1.4 0 .5.1s.2.3.1.5l-.8 2.6.8 2.6c.1.2 0 .4-.1.5-.2 0-.3.1-.5.1z" class="st1"/></g><g><path d="M223.3 64.4c-.1 0-.3-.1-.4-.1-.1-.1-.2-.3-.1-.5l.8-2.6-.8-2.6c-.1-.2 0-.4.1-.5.1-.1.3-.2.5-.1l2.6.8 2.6-.8c.2-.1.4 0 .5.1s.2.3.1.5l-.8 2.6.8 2.6c.1.2 0 .4-.1.5s-.3.2-.5.1l-1-.3c-.3-.1-.4-.4-.3-.6.1-.3.4-.4.6-.3h.1l-.5-1.8v-.3l.5-1.8-1.8.5h-.3l-1.8-.5.5 1.8v.3l-.5 1.8 1.8-.5c.3-.1.5.1.6.3.1.3-.1.5-.3.6l-2.7.8h-.2z" class="st5"/></g><g><path d="M128.3 235.1c-.3 0-.5-.2-.5-.5v-2.4c0-.3.2-.5.5-.5s.5.2.5.5v2.4c0 .3-.3.5-.5.5zM128.3 240.9c-.3 0-.5-.2-.5-.5V238c0-.3.2-.5.5-.5s.5.2.5.5v2.4c0 .3-.3.5-.5.5zM132.4 236.8H130c-.3 0-.5-.2-.5-.5s.2-.5.5-.5h2.4c.3 0 .5.2.5.5s-.2.5-.5.5zM126.5 236.8h-2.4c-.3 0-.5-.2-.5-.5s.2-.5.5-.5h2.4c.3 0 .5.2.5.5s-.2.5-.5.5z" class="st4"/></g><g><path d="M162.1 17.9c-.3 0-.5-.2-.5-.5V15c0-.3.2-.5.5-.5s.5.2.5.5v2.4c0 .3-.2.5-.5.5zM162.1 23.8c-.3 0-.5-.2-.5-.5v-2.4c0-.3.2-.5.5-.5s.5.2.5.5v2.4c0 .3-.2.5-.5.5zM166.3 19.7h-2.4c-.3 0-.5-.2-.5-.5s.2-.5.5-.5h2.4c.3 0 .5.2.5.5s-.2.5-.5.5zM160.4 19.7H158c-.3 0-.5-.2-.5-.5s.2-.5.5-.5h2.4c.3 0 .5.2.5.5s-.2.5-.5.5z" class="st5"/></g><g><path d="M20.9 85.5c-.3 0-.5-.2-.5-.5v-2.4c0-.3.2-.5.5-.5s.5.2.5.5V85c0 .2-.3.5-.5.5zM20.9 91.3c-.3 0-.5-.2-.5-.5v-2.4c0-.3.2-.5.5-.5s.5.2.5.5v2.4c0 .3-.3.5-.5.5zM25 87.2h-2.4c-.3 0-.5-.2-.5-.5s.2-.5.5-.5H25c.3 0 .5.2.5.5s-.2.5-.5.5zM19.1 87.2h-2.4c-.3 0-.5-.2-.5-.5s.2-.5.5-.5h2.4c.3 0 .5.2.5.5s-.2.5-.5.5z" class="st2"/></g></svg>

<svg xmlns="http://www.w3.org/2000/svg" id="Layer_1" x="0" y="0" enable-background="new 0 0 256 256" version="1.1" viewBox="0 0 256 256" xml:space="preserve"><style>.st0{fill:#DBFDFF;}
	.st1{fill:#48386A;}
	.st2{fill:#9FEAFF;}
	.st3{fill:#FFFFFF;}
	.st4{fill:#FF8584;}
	.st5{fill:#FEBE7F;}</style><path d="M206.6 137.1c21.7-7.1 37.4-27.5 37.4-51.6 0-28.2-21.5-51.4-49-54-9.8-14.1-26.1-23.4-44.6-23.4-11.6 0-22.4 3.7-31.2 9.9-8-4.6-17.2-7.2-27-7.2-29.1 0-52.8 22.9-54.2 51.7-17.3 9.1-29 27.1-29 47.9 0 23 14.3 42.6 34.4 50.5-8.5 9.6-13.7 22.2-13.7 36 0 30 24.3 54.3 54.3 54.3 11.4 0 21.9-3.5 30.6-9.5 4.3 1.1 8.8 1.7 13.4 1.7 11.2 0 21.7-3.4 30.3-9.3 6.6 2.8 13.8 4.4 21.4 4.4 30 0 54.3-24.3 54.3-54.3 0-20.1-11.1-37.7-27.4-47.1z" class="st0"/><circle cx="47.3" cy="198" r="8.8" class="st1"/><circle cx="24.2" cy="198" r="8.8" class="st2"/><path d="M236 173H244.8V216H236z" class="st3"/><path d="M244.8 217H236c-.6 0-1-.4-1-1v-43c0-.6.4-1 1-1h8.8c.6 0 1 .4 1 1v43c0 .6-.5 1-1 1zm-7.8-2h6.8v-41H237v41z" class="st1"/><path d="M189.5 47.5c28.1 19.5 46.5 52 46.5 88.8V216H20v-79.8c0-59.6 48.4-108 108-108 19.8 0 38.5 5.4 54.4 14.8l7.1 4.5z" class="st3"/><path d="M236 217H20c-.6 0-1-.4-1-1v-79.8c0-60.1 48.9-109 109-109 19.3 0 38.3 5.1 55 14.9.5.3.6.9.4 1.4-.3.5-.9.6-1.4.4-16.3-9.6-35-14.6-53.9-14.6-59 0-107 48-107 107V215h214v-78.8c0-35-17.2-67.9-46.1-87.9-.5-.3-.6-.9-.3-1.4s.9-.6 1.4-.3c29.4 20.4 47 53.9 47 89.6V216c-.1.6-.5 1-1.1 1z" class="st1"/><path d="M194.5 47.5c28.1 19.5 46.5 52 46.5 88.8V216H25v-79.8c0-59.6 48.4-108 108-108 19.8 0 38.5 5.4 54.4 14.8l7.1 4.5z" class="st4"/><path d="M226 147.6V216H30v-79.8c0-54.1 43.9-98 98-98s98 43.9 98 98V147.6z" class="st3"/><path d="M226 217H30c-.6 0-1-.4-1-1v-79.8c0-54.6 44.4-99 99-99s99 44.4 99 99v5.3c0 .6-.4 1-1 1s-1-.4-1-1v-5.3c0-53.5-43.5-97-97-97s-97 43.5-97 97V215h194v-67.5c0-.6.4-1 1-1s1 .4 1 1V216c0 .6-.4 1-1 1z" class="st1"/><path d="M236 217H20c-.6 0-1-.4-1-1v-79.8c0-60.1 48.9-109 109-109 19.3 0 38.3 5.1 55 14.9.5.3.6.9.4 1.4-.3.5-.9.6-1.4.4-16.3-9.6-35-14.6-53.9-14.6-59 0-107 48-107 107V215h214v-78.8c0-35-17.2-67.9-46.1-87.9-.5-.3-.6-.9-.3-1.4s.9-.6 1.4-.3c29.4 20.4 47 53.9 47 89.6V216c-.1.6-.5 1-1.1 1z" class="st1"/><path d="M33.8 227.8 5 227.8 5 216 251 216 251 227.8 41.7 227.8z" class="st2"/><path d="M251 228.8H41.7c-.6 0-1-.4-1-1s.4-1 1-1H250V217H6v9.7h27.8c.6 0 1 .4 1 1s-.4 1-1 1H5c-.6 0-1-.4-1-1V216c0-.6.4-1 1-1h246c.6 0 1 .4 1 1v11.7c0 .6-.4 1.1-1 1.1z" class="st1"/><path d="M11.3 185.3 11.3 173 20 173 20 216 11.3 216 11.3 191.8z" class="st3"/><path d="M20 217h-8.8c-.6 0-1-.4-1-1v-24.3c0-.6.4-1 1-1s1 .4 1 1V215H19v-41h-6.8v11.2c0 .6-.4 1-1 1s-1-.4-1-1V173c0-.6.4-1 1-1H20c.6 0 1 .4 1 1v43c0 .6-.4 1-1 1zM84 117.4H42.3c-.3 0-.6-.1-.8-.4-.2-.2-.3-.6-.2-.8 1.3-5.8 3.3-11.5 5.8-16.9.2-.4.5-.6.9-.6h8.9c.6 0 1 .4 1 1s-.4 1-1 1h-8.2c-2.1 4.7-3.8 9.7-5.1 14.7H83v-14.7H64.6c-.6 0-1-.4-1-1s.4-1 1-1H84c.6 0 1 .4 1 1v16.7c0 .6-.4 1-1 1zM150.3 117.4h-11.5c-.6 0-1-.4-1-1s.4-1 1-1h10.5v-14.7h-42.7v14.7h25c.6 0 1 .4 1 1s-.4 1-1 1h-26c-.6 0-1-.4-1-1V99.7c0-.6.4-1 1-1h44.7c.6 0 1 .4 1 1v16.7c0 .6-.4 1-1 1zM108.3 67.9h-3.8c-.3 0-.5-.2-.5-.5s.2-.5.5-.5h3.8c.3 0 .5.2.5.5s-.3.5-.5.5zM213.7 117.4H172c-.6 0-1-.4-1-1V99.7c0-.6.4-1 1-1h36c.4 0 .7.2.9.6 2.5 5.4 4.4 11.1 5.8 16.9.1.3 0 .6-.2.8-.2.3-.5.4-.8.4zm-40.7-2h39.5c-1.2-5-2.9-10-5.1-14.7H173v14.7z" class="st1"/><path d="M202.5 104.7h5.1c.8 2.2 1.6 4.4 2.2 6.7H182v-6.7h20.5zM53.8 111.4c.7-2.3 1.4-4.5 2.2-6.7h25.6v6.7H53.8z" class="st2"/><path d="M128.6 91.8H135.29999999999998V124.3H128.6z" class="st2" transform="rotate(90 131.917 108.06)"/><path d="M115.7 67.4 177.7 67.4 177.7 84 88.3 84 88.3 67.4 105.5 67.4z" class="st2"/><path d="M90.2 89.8H175.7V256.7H90.2z" class="st5" transform="rotate(90 133 173.29)"/><path d="M211.5 216.5h-167c-.3 0-.5-.2-.5-.5v-17c0-.3.2-.5.5-.5h166.9c.3 0 .5.2.5.5v17c.1.3-.2.5-.4.5zm-166.5-1h166v-16H45v16z" class="st1"/><path d="M211.5 199.4h-167c-.3 0-.5-.2-.5-.5v-17c0-.3.2-.5.5-.5h166.9c.3 0 .5.2.5.5v17c.1.3-.2.5-.4.5zm-166.5-1h166v-16H45v16z" class="st1"/><path d="M211.5 182.3h-167c-.3 0-.5-.2-.5-.5v-17c0-.3.2-.5.5-.5H136c.3 0 .5.2.5.5s-.2.5-.5.5H45v16h166v-16h-65.6c-.3 0-.5-.2-.5-.5s.2-.5.5-.5h66.1c.3 0 .5.2.5.5v17c0 .3-.3.5-.5.5z" class="st1"/><path d="M211.5 165.2h-66.1c-.3 0-.5-.2-.5-.5s.2-.5.5-.5H211v-16H45v16h91c.3 0 .5.2.5.5s-.2.5-.5.5H44.5c-.3 0-.5-.2-.5-.5v-17c0-.3.2-.5.5-.5h166.9c.3 0 .5.2.5.5v17c.1.3-.2.5-.4.5zM251 222.4H120.8c-.3 0-.5-.2-.5-.5s.2-.5.5-.5H251c.3 0 .5.2.5.5s-.2.5-.5.5zM114 222.4H5c-.3 0-.5-.2-.5-.5s.2-.5.5-.5h109c.3 0 .5.2.5.5s-.2.5-.5.5zM79 111.9H48.8c-.2 0-.3-.1-.4-.2-.1-.1-.1-.3-.1-.4.7-2.3 1.5-4.6 2.5-6.8.1-.2.3-.3.5-.3H79c.3 0 .5.2.5.5v6.7c0 .3-.2.5-.5.5zm-29.5-1h29v-5.7H51.6c-.8 1.9-1.5 3.8-2.1 5.7zM145.3 111.9h-34.7c-.3 0-.5-.2-.5-.5v-6.7c0-.3.2-.5.5-.5h34.7c.3 0 .5.2.5.5v6.7c0 .3-.2.5-.5.5zm-34.1-1h33.7v-5.7h-33.7v5.7zM172.7 84.5H83.3c-.3 0-.5-.2-.5-.5V67.4c0-.3.2-.5.5-.5h17.2c.3 0 .5.2.5.5s-.2.5-.5.5H83.8v15.6h88.3V67.9h-61.5c-.3 0-.5-.2-.5-.5s.2-.5.5-.5h62c.3 0 .5.2.5.5V84c.1.3-.2.5-.4.5z" class="st1"/><g><path d="M211.5 216.5h-167c-.3 0-.5-.2-.5-.5v-85.5c0-.3.2-.5.5-.5h166.9c.3 0 .5.2.5.5V216c.1.3-.2.5-.4.5zm-166.5-1h166V131H45v84.5z" class="st1"/></g><g><path d="M207.2 111.9H177c-.3 0-.5-.2-.5-.5v-6.7c0-.3.2-.5.5-.5h15.9c.3 0 .5.2.5.5s-.2.5-.5.5h-15.4v5.7h29c-.6-1.9-1.3-3.8-2.1-5.7h-5.2c-.3 0-.5-.2-.5-.5s.2-.5.5-.5h5.5c.2 0 .4.1.5.3.9 2.2 1.7 4.5 2.5 6.8 0 .2 0 .3-.1.4-.1.1-.2.2-.4.2z" class="st1"/></g><g><path d="M216.7 217H39.3c-.6 0-1-.4-1-1v-70c0-.6.4-1 1-1s1 .4 1 1v69h175.3v-88.7H40.3v12.1c0 .6-.4 1-1 1s-1-.4-1-1v-13.1c0-.6.4-1 1-1h177.3c.6 0 1 .4 1 1V216c.1.6-.4 1-.9 1z" class="st1"/></g><g><path d="M177.7 90H78.3c-.6 0-1-.4-1-1V62.4c0-.6.4-1 1-1h99.3c.6 0 1 .4 1 1V89c.1.6-.4 1-.9 1zm-98.4-2h97.3V63.4H79.3V88z" class="st1"/></g><g><path d="M244.8 217H236c-.6 0-1-.4-1-1v-43c0-.6.4-1 1-1h8.8c.6 0 1 .4 1 1v43c0 .6-.5 1-1 1zm-7.8-2h6.8v-41H237v41z" class="st1"/></g><g><path d="M70.2 241.7c-1.6 0-3-1.3-3-3s1.3-3 3-3 3 1.3 3 3-1.3 3-3 3zm0-4.9c-1.1 0-2 .9-2 2s.9 2 2 2 2-.9 2-2-.9-2-2-2z" class="st1"/></g><g><path d="M59.5 38.8c-1.6 0-3-1.3-3-3s1.3-3 3-3 3 1.3 3 3-1.4 3-3 3zm0-5c-1.1 0-2 .9-2 2s.9 2 2 2 2-.9 2-2-.9-2-2-2z" class="st4"/></g><g><path d="M97.3 22.4h-.1l-1-.3c-.3-.1-.4-.4-.3-.6.1-.3.4-.4.6-.3h.1l-.5-1.8v-.3l.5-1.8-1.8.5h-.3l-1.8-.5.5 1.8v.3l-.5 1.8 1.8-.5c.3-.1.5.1.6.3.1.3-.1.5-.3.6l-2.7.8c-.2 0-.4 0-.5-.1-.1-.1-.2-.3-.1-.5l.8-2.6-.8-2.6c-.1-.2 0-.4.1-.5.1-.1.3-.2.5-.1l2.6.8 2.6-.8c.2-.1.4 0 .5.1s.2.3.1.5l-.8 2.6.8 2.6c.1.2 0 .4-.1.5-.2 0-.3.1-.5.1z" class="st1"/></g><g><path d="M223.3 64.4c-.1 0-.3-.1-.4-.1-.1-.1-.2-.3-.1-.5l.8-2.6-.8-2.6c-.1-.2 0-.4.1-.5.1-.1.3-.2.5-.1l2.6.8 2.6-.8c.2-.1.4 0 .5.1s.2.3.1.5l-.8 2.6.8 2.6c.1.2 0 .4-.1.5s-.3.2-.5.1l-1-.3c-.3-.1-.4-.4-.3-.6.1-.3.4-.4.6-.3h.1l-.5-1.8v-.3l.5-1.8-1.8.5h-.3l-1.8-.5.5 1.8v.3l-.5 1.8 1.8-.5c.3-.1.5.1.6.3.1.3-.1.5-.3.6l-2.7.8h-.2z" class="st5"/></g><g><path d="M128.3 235.1c-.3 0-.5-.2-.5-.5v-2.4c0-.3.2-.5.5-.5s.5.2.5.5v2.4c0 .3-.3.5-.5.5zM128.3 240.9c-.3 0-.5-.2-.5-.5V238c0-.3.2-.5.5-.5s.5.2.5.5v2.4c0 .3-.3.5-.5.5zM132.4 236.8H130c-.3 0-.5-.2-.5-.5s.2-.5.5-.5h2.4c.3 0 .5.2.5.5s-.2.5-.5.5zM126.5 236.8h-2.4c-.3 0-.5-.2-.5-.5s.2-.5.5-.5h2.4c.3 0 .5.2.5.5s-.2.5-.5.5z" class="st4"/></g><g><path d="M162.1 17.9c-.3 0-.5-.2-.5-.5V15c0-.3.2-.5.5-.5s.5.2.5.5v2.4c0 .3-.2.5-.5.5zM162.1 23.8c-.3 0-.5-.2-.5-.5v-2.4c0-.3.2-.5.5-.5s.5.2.5.5v2.4c0 .3-.2.5-.5.5zM166.3 19.7h-2.4c-.3 0-.5-.2-.5-.5s.2-.5.5-.5h2.4c.3 0 .5.2.5.5s-.2.5-.5.5zM160.4 19.7H158c-.3 0-.5-.2-.5-.5s.2-.5.5-.5h2.4c.3 0 .5.2.5.5s-.2.5-.5.5z" class="st5"/></g><g><path d="M20.9 85.5c-.3 0-.5-.2-.5-.5v-2.4c0-.3.2-.5.5-.5s.5.2.5.5V85c0 .2-.3.5-.5.5zM20.9 91.3c-.3 0-.5-.2-.5-.5v-2.4c0-.3.2-.5.5-.5s.5.2.5.5v2.4c0 .3-.3.5-.5.5zM25 87.2h-2.4c-.3 0-.5-.2-.5-.5s.2-.5.5-.5H25c.3 0 .5.2.5.5s-.2.5-.5.5zM19.1 87.2h-2.4c-.3 0-.5-.2-.5-.5s.2-.5.5-.5h2.4c.3 0 .5.2.5.5s-.2.5-.5.5z" class="st2"/></g></svg>
